!!!!SEGMENT: pl-wnifc--13846--083_anonim--piesni-polskie-i-ruskie-ludu-galicyjskiego-83-juz-miesiac-zeszedl.krn
!!!kernsource:
!!!cenid: 18xx:3305
!!!COM: Anonim
!!!COM-rismID: pe30004985
!!!CDT:
!!!CNT:
!!!GTL: Pieśni polskie i ruskie ludu galicyjskiego
!!!OTL: 83. Już miesiąc zeszedł
!!!PDT: 1833
!!!AGN:
!!!SMS-siglum: PL-Wnifc
!!!SMS-shelfmark: 13846
!!!SMS-shelfwork: 083 G
!!!NIFC-rismSourceID: 1001038994
!!!NIFC-rismChildID: 1001038994
!!!NIFC-islandoraID:
!!!URL-pdf-islandora:
!!!URL-scan:
!!!ONB-nifc:
!!!OMD: Andante
!!!AIN: 1 piano 1 vox
!!!key: G
**kern	**kern	**kern	**text
*part2	*part2	*part1	*part1
*staff3	*staff2	*staff1	*staff1
*>[A,B,B]	*>[A,B,B]	*>[A,B,B]	*>[A,B,B]
*>A	*>A	*>A	*>A
*I"FORTEPIAN.	*I"FORTEPIAN.	*I"GŁOS.	*
*Ipiano	*Ipiano	*Ivox	*
*ICklav	*ICklav	*ICvox	*
*IGacmp	*IGacmp	*IGsolo	*
*clefF4	*clefG2	*clefG2	*
*k[f#]	*k[f#]	*k[f#]	*
*G:	*G:	*G:	*
*M4/4	*M4/4	*M4/4	*
*met(c)	*met(c)	*met(c)	*
=1-	=1-	=1-	=1-
!	!LO:TX:a:t=E. 47.:rj	!	!
(>4GG/	8.b\L 8.g\	(<8.b\L	Już
.	16a\K 16f#\	16a/Jk)	.
4G\)	8b\ 8g\	8b\	mie-
.	8cc\J 8a\	8cc\	-siąc
(>4GG/	4dd\ 4b\	4dd\	ze-
4G\)	4dd\ 4b\	4dd\	-szedł,
=2	=2	=2	=2
(>4GG/	8.ee\L 8.cc\	(>8.ee\L	psy
.	16dd\Jk 16b\	16dd\Jk)	.
4G\)	8cc\L 8a\	8cc\	się
.	8b\J 8g\	8b\	u-
2D\	(<8.b/L 8.g/	(<8.b\L	-spi-
.	16a/Jk 16f#/)	16a/Jk)	.
.	4a/ 4f#/	4a/	-ły,
!!LO:LB:g=original
=3	=3	=3	=3
(>4GG/	8.b/L 8.g/	(<8.b\L	i
.	16a/K 16f#/	16a/Jk)	.
4G\)	8b/ 8g/	8b\	coś
.	8cc/J 8a/	8cc\	tam
4GG/	4dd\ 4b\	4dd\	kla-
4G\	4dd\ 4b\	4dd\	-szcze
=4	=4	=4	=4
*^	*	*	*
4G/	4E\	(8ee\L 8b\	(8ee\L	za-
.	.	8dd\)	8dd\	.
4A/	4A\	(8cc#X\ 8g\	8cc#X\J)	.
.	.	8ee\J)	8ee\	bo-
!	!	!	!LO:N:vis=8.	!
4.A/	4.D\	4.dd\ 4.f#\;	4.dd\;	-rem
8r	8ryy	8r	8r	.
*v	*v	*	*	*
=5!|:	=5!|:	=5!|:	=5!|:
*>B	*>B	*>B	*>B
*	*^	*	*
4G\	4b/	4g\	4b/	pew-
4D\	8cc/L 8a/	4ryy	8cc/	-nie
.	8a/J 8d/	.	8a/	mię
2G/ 2GG/	4.g/ 4.B/	2ryy	4.g/	cze-
.	8g/ 8B/	.	8g/	-ka
*	*v	*v	*	*
!!LO:PB:g=original
=6	=6	=6	=6
4D/ 4DD/	4a/ 4d/	4a/	mój
4D/ 4DD/	8a/L 8d/	8a/	Fi-
.	8a/J 8d/	8a/	-lon
2D/ 2DD/	(8dd/L 8f#/ 8d/	(8dd\L	mi-
.	8cc/ 8a/	8cc\	.
.	8b/ 8g/)	8b\J)	.
.	8a/J 8f#/|	8a/	-ły,
=7	=7	=7	=7
*	*^	*	*
4G/ 4GG/	4b/	4g\	4b\	pod
4D/ 4DD/	8cc/L 8a/	4ryy	8cc\	u-
.	8a/J 8d/	.	8a/	-mó-
2G/ 2GG/	4.g/ 4.B/	2ryy	4.g/	-wio-
.	8b/ 8d/	.	8b/	-nym
=8	=8	=8	=8	=8
*^	*	*	*	*
!	!	!LO:S:s=1:note:problem=note-level slur	!	!	!
4F#/	4D\	(<8a/L	4c\	(8a/L	ja-
.	.	8g/)	.	8g/	.
!	!	!LO:S:s=1:note:problem=note-level slur	!	!	!
4F#/	4D\	(<8a/	4c\	8a/J)	.
.	.	8b/J)	.	8b/	-wo-
4G/	4D\ 4GG\	4g/	4B\	4g/	-rem.
4r	4ryy	4r	4ryy	4r	.
*v	*v	*	*	*	*
*	*v	*v	*	*
==	==	==	==
*-	*-	*-	*-
!!!system-decoration: <s1>{(s2,s3)}
!!!RDF**kern: > = above
!!!RDF**kern: < = below
!!!RDF**kern: | = vertical stroke
!!!ENC: Emilia Ziętek
!!!END: 2021-10-11
!!!ENC: Andrzej Kubiczek
!!!END: 2021-11-11
!!!YEC: Copyright 2022 Narodowy Instytut Fryderyka Chopina (https://polishscores.org)
!!!YEM: License CC-BY-4.0 (https://creativecommons.org/licenses/by/4.0)
